X: 1
T:La Russe
T:Fergus MacIver
% Nottingham Music Database
S:Kevin Briggs, via EF
B:Kennedy
M:C|
L:1/4
K:G
"C"\
| "G"GB/B/ Bd/d/ | "G"dg gf/g/ | "C"ag ec | "D7"ed/e/ d/c/B/A/ \
| "G"GB/B/ Bd/d/ | "G"dg gf/g/ | "C"ed "D7"dF | "G"AG "fine"G2 |] [K:D]
"D"\
| "D"Ad/d/ dc/B/ | "D"Aa/a/ ag/f/ | "A7"gf ge | "D"f/g/a/g/ fd \
| "D"Ad/d/ dc/B/ | "D"Aa/a/ ag/f/ | "A7"gf ge | "D"d2 "D7"=c2 |]
